X:1
T:Phillips (Main), 77.75
T:Phillips (Main), 77.75
T:Sylvester Main, 1865
T:Public Domain Courtesy of the Cyber Hymnal™
C:Sylvester Main, 1865
Z:Public Domain
Z:Courtesy of the Cyber Hymnal™
%%score ( 1 2 ) ( 3 4 )
L:1/8
Q:1/4=115
M:3/4
K:Bb
V:1 treble 
V:2 treble 
V:3 bass 
V:4 bass 
V:1
 ([DF]3 [EG]) [DF]2 | ([Fd]3 [Ec]) [DB]2 | (G3 A) [EB]2 | [DF]6 | (F2 [EG]2) [EA]2 | B4 [Fc]2 | %6
 (d3 c) [=EB]2 | [Fc]6 | ([DF]3 [EG]) [DF]2 | ([Fd]3 [Ec]) [DB]2 | [EG]4 ([GB][EG]) | [DF]6 | %12
 [FB]4 [FB]2 | [Fd]4 [Ec]2 | [DB]6 |] %15
V:2
 x6 | x6 | E4 x2 | x6 | F2 x4 | (D2 F2) x2 | F4 x2 | x6 | x6 | x6 | x6 | x6 | x6 | x6 | x6 |] %15
V:3
 [B,,B,]4 [B,,B,]2 | [B,,F,]4 [B,,B,]2 | (B,3 A,) [E,G,]2 | [B,,B,]6 | B,4 [C,F,]2 | F,4 [F,A,]2 | %6
 B,3 [A,C] [G,B,]2 | [F,A,]6 | [B,,B,]4 [B,,B,]2 | [B,,F,]4 [B,,B,]2 | [E,B,]4 [E,B,]2 | [B,,B,]6 | %12
 [B,,D]4 [D,B,]2 | [F,B,]4 F,2 | [B,,F,]6 |] %15
V:4
 x6 | x6 | E,4 x2 | x6 | (D,2 E,2) x2 | (B,,2 D,2) x2 | B,3 x3 | x6 | x6 | x6 | x6 | x6 | x6 | %13
 x4 F,2 | x6 |] %15

